img/vector-hover.svg

<svg width="13" height="13" viewBox="0 0 13 13" fill="none" xmlns="http://www.w3.org/2000/svg">
<path d="M5.12056 9.09278L6.13889 10.1111L9.75 6.5L6.13889 2.88889L5.12056 3.90722L6.98389 5.77778H0V7.22222H6.98389L5.12056 9.09278ZM11.5556 0H1.44444C0.642778 0 0 0.65 0 1.44444V4.33333H1.44444V1.44444H11.5556V11.5556H1.44444V8.66667H0V11.5556C0 12.35 0.642778 13 1.44444 13H11.5556C12.35 13 13 12.35 13 11.5556V1.44444C13 0.65 12.35 0 11.5556 0Z" fill="#C283F3"/>
</svg>

<svg width="13" height="13" fill="none" xmlns="http://www.w3.org/2000/svg"><path d="M5.12 9.093L6.14 10.11 9.75 6.5 6.139 2.889 5.12 3.907l1.863 1.87H0v1.445h6.984L5.12 9.092zM11.557 0H1.444C.643 0 0 .65 0 1.444v2.89h1.444v-2.89h10.112v10.112H1.444v-2.89H0v2.89C0 12.35.643 13 1.444 13h10.112C12.35 13 13 12.35 13 11.556V1.444C13 .65 12.35 0 11.556 0z" fill="#C283F3"/></svg>
